X:1
T: Lady Susan Gordon's Reel
C:
R:Jig
Q:180
K:Bb
M:6/8
L:1/16
B6 c2B2A2|B2A2G2 F2E2D2|c6 e2d2c2|d2c2B2 A2G2F2|B2c2d2 A2B2c2|G2A2B2 F2D2B,2|e2f2g2 f2d2B2|c2A2F2 B6|
B6 c2B2A2|B2A2G2 F2E2D2|c6 e2d2c2|d2c2B2 A2G2F2|B2c2d2 A2B2c2|G2A2B2 F2D2B,2|e2f2g2 f2d2B2|c2A2F2 B6|
B2d2f2 B2d2f2|B2e2g2 B2e2g2|B2d2f2 b2f2d2|A2G2F2 e2d2c2|B2d2f2 B2d2f2|B2e2g2 b2a2g2|f2d2B2 g2e2d2|c2B2A2 B6|
B2d2f2 B2d2f2|B2e2g2 B2e2g2|B2d2f2 b2f2d2|A2G2F2 e2d2c2|B2c2d2 c2d2e2|d2e2f2 g2a2b2|f2d2B2 f2e2d2|c2B2A2 B6||
